X:1
T: Callum Beg
C:
R:Reel
Q: 232
K:A
M:4/4
L:1/8
e1/2-f1/2-g1/2|a2 A2 dc BA|G2 B2 B2 cd|e2 A2 c2 e2|a2 ga ba gf|e2 A2 dc BA|G2 B2 B2 E2|F2 GA E2 G2|A8|
a2 A2 dc BA|G2 B2 B2 cd|e2 A2 c2 e2|a2 ga ba gf|e2 A2 dc BA|G2 B2 B2 E2|F2 GA E2 G2|A6 e2|
a3b c'2 a2|ba gf e2 fg|ag ab c'2 d'2|c'4 b2 e2|ag ab c'b c'd'|c'2 f2 f2 c'2|b2 ef ge fg|a2 z2 A2 z2|
a3b c'2 a2|ba gf e2 fg|ag ab c'2 d'2|c'4 b2 e2|ag ab c'b c'd'|c'2 f2 f2 c'2|b2 ef ge fg|a2 z2 A2||
